svg/Outline/chevron-up-circle.svg

<svg viewBox="0 0 24 24" xmlns="http://www.w3.org/2000/svg" width="24" height="24"><path d="M11.38 8.26a2 2 0 0 1 1.24 0q.43.16.68.4.26.22.54.5l2.77 2.78a1 1 0 0 1-1.41 1.42l-2.78-2.78-.41-.4h-.02l-.41.4-2.78 2.78-.07.07a1 1 0 0 1-1.41-1.41l.07-.08 2.77-2.77q.28-.3.54-.51.26-.24.68-.4"/><path fill-rule="evenodd" d="M12 1A11 11 0 1 1 12 23A11 11 0 0 1 12 1M12 2.5A9.5 9.5 0 1 0 12 21.5A9.5 9.5 0 0 0 12 2.5" clip-rule="evenodd"/></svg>

<svg viewBox="0 0 24 24" xmlns="http://www.w3.org/2000/svg" width="24" height="24"><path d="M11.38 8.26A2 2 0 0 1 12.62 8.26Q13.05 8.42 13.3 8.66Q13.56 8.88 13.84 9.16L16.61 11.94A1 1 0 0 1 15.2 13.36L11.99 10.18L8.73 13.43A1 1 0 0 1 7.32 12.02L10.16 9.17Q10.44 8.87 10.7 8.66Q10.96 8.42 11.38 8.26"/><path fill-rule="evenodd" d="M12 1A11 11 0 1 1 12 23A11 11 0 0 1 12 1M12 2.5A9.5 9.5 0 1 0 12 21.5A9.5 9.5 0 0 0 12 2.5" clip-rule="evenodd"/></svg>
